X:12
T:Jig
F:http://www.vwml.org/record/Moore1/4493/p7
Z:Transcribed by Paul Barber-Riley  March 2016
S:John Moore's Book 1
L:1/8
M:6/8
K:D
d3 fef | dfd f2f | g2e e2d | cec A2A |
d3 fef | dfd f2f | g2e2 cec | d>d:|  %timing error 3rd bar this line prob should be |g2e cec|
A2A ABc | d2d def | g2e a2f | ged cBA |
A2A ABc | d2d def | g2e cec | d2d2:|

